X:1
T:Moon and Seven Stars, The
L:1/8
M:6/8
I:linebreak $
K:D
V:1
 A |"D" d2 A AGF |"G" GAB "D" A2 A |"G" Bcd efg |"A" fed cBA |$
 "D" c2 A AGF |"G" GAB"D" A2 A |"G" Bcd efg |1"A"   Adc "D"d2 :|2"A"  Adc "D"d3 ||$
 |:"A"e2 A ABA | efg "D" f3 |"A" efg"D" fec |"E" cdB "A"A2 A |$
 "G"BGB "D"A2 A |"G"  BGB"D" A2 A |"G" Bcd efg |1"A" Adc "D" d3 :|2 "A"Adc "D" d2 |]
